app/images/vector-two.svg

<svg width="247" height="15" viewBox="0 0 247 15" fill="none" xmlns="http://www.w3.org/2000/svg">
<path d="M240.34 1.23264C236.296 4.29896 234.898 7.04695 226.237 8.54568C215.576 10.392 204.963 5.98673 199.71 2.37471C197.897 1.12805 193.5 0.888328 191.807 2.37471C184.385 8.88999 167.949 7.29901 160.936 1.01111C159.212 -0.53569 153.381 -0.259588 152.664 1.51004C148.723 11.2573 131.029 12.2889 119.178 5.22405C120.472 3.3219 113.724 2.02715 111.885 3.88903C101.937 13.9605 82.5158 12.8353 71.2436 3.84746C69.2872 2.28766 64.9044 2.83467 63.6405 4.30611C54.4795 14.9759 40.2108 9.90019 32.2038 2.55597C30.6444 1.1248 26.1969 1.62047 25.2567 2.97498C20.881 9.28302 13.672 10.4608 1.52718 12.0927C-0.759914 12.4007 -0.406646 14.2327 2.10846 14.078C16.0239 13.2218 23.6241 12.0791 29.3116 7.29576C40.9962 15.7177 57.3084 17.438 68.2541 8.57622C82.4468 16.7767 105.246 17.7115 116.542 7.95515C129.09 15.8334 150.132 15.4455 158.559 6.8605C169.43 12.7794 185.252 13.611 196.199 6.98719C212.49 14.5477 245.809 16.2401 246.997 2.06678C247.145 0.37641 242.128 -0.124463 240.34 1.23264Z" fill="#00B2A0"/>
</svg>

<svg width="247" height="15" fill="none" xmlns="http://www.w3.org/2000/svg"><path d="M240.34 1.233c-4.044 3.066-5.442 5.814-14.103 7.313-10.661 1.846-21.274-2.56-26.527-6.171-1.813-1.247-6.21-1.487-7.903 0-7.422 6.515-23.858 4.924-30.871-1.364-1.724-1.547-7.555-1.27-8.272.499-3.941 9.747-21.635 10.779-33.486 3.714 1.294-1.902-5.454-3.197-7.293-1.335-9.948 10.072-29.37 8.946-40.641-.042-1.957-1.56-6.34-1.012-7.603.46C54.48 14.975 40.21 9.9 32.204 2.555c-1.56-1.431-6.007-.936-6.947.419-4.376 6.308-11.585 7.486-23.73 9.118-2.287.308-1.934 2.14.581 1.985 13.916-.856 21.516-1.999 27.204-6.782 11.684 8.422 27.996 10.142 38.942 1.28 14.193 8.2 36.992 9.136 48.288-.62 12.548 7.877 33.59 7.49 42.017-1.096 10.871 5.92 26.693 6.751 37.64.127 16.291 7.56 49.61 9.253 50.798-4.92.148-1.69-4.869-2.191-6.657-.834z" fill="#00B2A0"/></svg>
